icons/droidvim.svg

<?xml version="1.0" encoding="UTF-8" standalone="no"?>
<svg
   xmlns:dc="http://purl.org/dc/elements/1.1/"
   xmlns:cc="http://creativecommons.org/ns#"
   xmlns:rdf="http://www.w3.org/1999/02/22-rdf-syntax-ns#"
   xmlns:svg="http://www.w3.org/2000/svg"
   xmlns="http://www.w3.org/2000/svg"
   xmlns:sodipodi="http://sodipodi.sourceforge.net/DTD/sodipodi-0.dtd"
   xmlns:inkscape="http://www.inkscape.org/namespaces/inkscape"
   viewBox="0 0 48 48"
   version="1.1"
   id="svg8"
   sodipodi:docname="droidvim.svg"
   inkscape:version="1.0.2 (e86c870879, 2021-01-15)">
  <metadata
     id="metadata12">
    <rdf:RDF>
      <cc:Work
         rdf:about="">
        <dc:format>image/svg+xml</dc:format>
        <dc:type
           rdf:resource="http://purl.org/dc/dcmitype/StillImage" />
        <dc:title></dc:title>
      </cc:Work>
    </rdf:RDF>
  </metadata>
  <sodipodi:namedview
     pagecolor="#595959"
     bordercolor="#666666"
     borderopacity="1"
     objecttolerance="10"
     gridtolerance="10"
     guidetolerance="10"
     inkscape:pageopacity="0"
     inkscape:pageshadow="2"
     inkscape:window-width="3840"
     inkscape:window-height="2096"
     id="namedview10"
     showgrid="false"
     showguides="true"
     inkscape:guide-bbox="true"
     inkscape:zoom="6.9053397"
     inkscape:cx="24"
     inkscape:cy="25.188138"
     inkscape:window-x="0"
     inkscape:window-y="27"
     inkscape:window-maximized="1"
     inkscape:current-layer="svg8"
     inkscape:document-rotation="0" />
  <defs
     id="defs4">
    <style
       id="style2">.a{fill:none;stroke:#fff;stroke-linecap:round;stroke-linejoin:round;}</style>
  </defs>
  <path
     id="rect8358"
     style="fill:none;fill-opacity:1;stroke:#ffffff;stroke-width:1;stroke-linecap:round;stroke-linejoin:round;stroke-miterlimit:4.48000002;stroke-dasharray:none;stroke-dashoffset:0;stroke-opacity:1"
     d="m 12.999998,6.9016747 c 0.578713,-3.2510461 22.831865,-3.1530407 24.000004,0 V 41.318399 c -1.778994,2.852648 -22.687606,2.964423 -24.000004,0 z"
     sodipodi:nodetypes="ccccc" />
  <rect
     style="fill:none;fill-opacity:1;stroke:#ffffff;stroke-width:1;stroke-linecap:round;stroke-linejoin:round;stroke-miterlimit:4.48000002;stroke-dasharray:none;stroke-dashoffset:0;stroke-opacity:1"
     id="rect8361"
     width="23.048775"
     height="31.440384"
     x="13.483806"
     y="8.2090836" />
  <path
     style="fill:none;stroke:#ffffff;stroke-width:1;stroke-linecap:round;stroke-linejoin:round;stroke-opacity:1;stroke-miterlimit:4.48000002;stroke-dasharray:none"
     d="m 23.204172,6.7073188 c 3.688108,0 3.688108,0 3.688108,0"
     id="path8363" />
  <path
     style="fill:none;stroke:#ffffff;stroke-width:1;stroke-linecap:round;stroke-linejoin:round;stroke-opacity:1;stroke-miterlimit:4.48000002;stroke-dasharray:none"
     d="m 23.823086,24.40577 5.508859,-5.382751 H 29.4515 v 4.179631 l 4.328289,-4.179631 h 0.326389 v 5.382751 h -0.983632 v -3.410339 l -3.5646,3.410339 H 28.441642 V 21.043918 L 24.95149,24.40577 Z"
     id="path8365"
     sodipodi:nodetypes="cccccccccccccc" />
  <rect
     style="fill:none;fill-opacity:1;stroke:#ffffff;stroke-width:1;stroke-linecap:round;stroke-linejoin:round;stroke-miterlimit:4.48000002;stroke-dasharray:none;stroke-dashoffset:0;stroke-opacity:1"
     id="rect8373"
     width="1.3541132"
     height="0.57186162"
     x="20.98188"
     y="17.70952" />
  <rect
     style="fill:none;fill-opacity:1;stroke:#ffffff;stroke-width:1;stroke-linecap:round;stroke-linejoin:round;stroke-miterlimit:4.48000002;stroke-dasharray:none;stroke-dashoffset:0;stroke-opacity:1"
     id="rect8375"
     width="1.4158199"
     height="4.4787812"
     x="20.902847"
     y="19.754389" />
  <path
     id="path8377"
     style="fill:none;stroke:#ffffff;stroke-width:1;stroke-linecap:round;stroke-linejoin:round;stroke-opacity:1;stroke-miterlimit:4.48000002;stroke-dasharray:none"
     d="m 22.319142,19.99974 7.562889,-7.313681 V 11.7817 H 26.52148 l -7.074828,6.937646 V 11.7817 h -3.543755 v 0 13.340741 h 1.118989 l 3.881637,-3.753731" />
  <path
     style="fill:none;stroke:#ffffff;stroke-width:1;stroke-linecap:round;stroke-linejoin:round;stroke-opacity:1;stroke-miterlimit:4.48000002;stroke-dasharray:none"
     d="M 13.123591,36.788355 H 36.644736"
     id="path8398"
     sodipodi:nodetypes="cc" />
  <path
     style="fill:none;stroke:#ffffff;stroke-width:1;stroke-linecap:round;stroke-linejoin:round;stroke-opacity:1;stroke-miterlimit:4.48000002;stroke-dasharray:none"
     d="m 15.614365,38.167622 h 0.341583"
     id="path11700"
     sodipodi:nodetypes="cc" />
  <path
     style="fill:none;stroke:#ffffff;stroke-width:1;stroke-linecap:round;stroke-linejoin:round;stroke-opacity:1;stroke-miterlimit:4.48000002;stroke-dasharray:none"
     d="m 17.689802,38.167622 h 0.341584"
     id="path11700-3"
     sodipodi:nodetypes="cc" />
  <path
     style="fill:none;stroke:#ffffff;stroke-width:1;stroke-linecap:round;stroke-linejoin:round;stroke-opacity:1;stroke-miterlimit:4.48000002;stroke-dasharray:none"
     d="m 19.765236,38.167622 h 0.341585"
     id="path11700-7"
     sodipodi:nodetypes="cc" />
  <path
     style="fill:none;stroke:#ffffff;stroke-width:1;stroke-linecap:round;stroke-linejoin:round;stroke-opacity:1;stroke-miterlimit:4.48000002;stroke-dasharray:none"
     d="m 21.840672,38.167622 h 0.341584"
     id="path11700-4"
     sodipodi:nodetypes="cc" />
  <path
     style="fill:none;stroke:#ffffff;stroke-width:1;stroke-linecap:round;stroke-linejoin:round;stroke-opacity:1;stroke-miterlimit:4.48000002;stroke-dasharray:none"
     d="m 23.916109,38.167622 h 0.341583"
     id="path11700-5"
     sodipodi:nodetypes="cc" />
  <path
     style="fill:none;stroke:#ffffff;stroke-width:1;stroke-linecap:round;stroke-linejoin:round;stroke-opacity:1;stroke-miterlimit:4.48000002;stroke-dasharray:none"
     d="m 25.991545,38.167622 h 0.341584"
     id="path11700-2"
     sodipodi:nodetypes="cc" />
  <path
     style="fill:none;stroke:#ffffff;stroke-width:1;stroke-linecap:round;stroke-linejoin:round;stroke-opacity:1;stroke-miterlimit:4.48000002;stroke-dasharray:none"
     d="m 28.06698,38.167622 h 0.341585"
     id="path11700-54"
     sodipodi:nodetypes="cc" />
</svg>

<?xml version="1.0" encoding="UTF-8"?>
<svg version="1.1" viewBox="0 0 48 48" xmlns="http://www.w3.org/2000/svg">
    <defs>
        <style>.a{fill:none;stroke:#fff;stroke-linecap:round;stroke-linejoin:round;}</style>
    </defs>
    <path d="m13 6.9017c0.57871-3.251 22.832-3.153 24 0v34.417c-1.779 2.8526-22.688 2.9644-24 0z" fill="none" stroke="#fff" stroke-linecap="round" stroke-linejoin="round" stroke-miterlimit="4.48"/>
    <rect x="13.484" y="8.2091" width="23.049" height="31.44" fill="none" stroke="#fff" stroke-linecap="round" stroke-linejoin="round" stroke-miterlimit="4.48"/>
    <path d="m23.204 6.7073h3.6881" fill="none" stroke="#fff" stroke-linecap="round" stroke-linejoin="round" stroke-miterlimit="4.48"/>
    <path d="m23.823 24.406 5.5089-5.3828h0.11956v4.1796l4.3283-4.1796h0.32639v5.3828h-0.98363v-3.4103l-3.5646 3.4103h-1.1163v-3.3619l-3.4902 3.3619z" fill="none" stroke="#fff" stroke-linecap="round" stroke-linejoin="round" stroke-miterlimit="4.48"/>
    <rect x="20.982" y="17.71" width="1.3541" height=".57186" fill="none" stroke="#fff" stroke-linecap="round" stroke-linejoin="round" stroke-miterlimit="4.48"/>
    <rect x="20.903" y="19.754" width="1.4158" height="4.4788" fill="none" stroke="#fff" stroke-linecap="round" stroke-linejoin="round" stroke-miterlimit="4.48"/>
    <path d="m22.319 20 7.5629-7.3137v-0.90436h-3.3606l-7.0748 6.9376v-6.9376h-3.5438v13.341h1.119l3.8816-3.7537" fill="none" stroke="#fff" stroke-linecap="round" stroke-linejoin="round" stroke-miterlimit="4.48"/>
    <path d="m13.124 36.788h23.521" fill="none" stroke="#fff" stroke-linecap="round" stroke-linejoin="round" stroke-miterlimit="4.48"/>
    <path d="m15.614 38.168h0.34158" fill="none" stroke="#fff" stroke-linecap="round" stroke-linejoin="round" stroke-miterlimit="4.48"/>
    <path d="m17.69 38.168h0.34158" fill="none" stroke="#fff" stroke-linecap="round" stroke-linejoin="round" stroke-miterlimit="4.48"/>
    <path d="m19.765 38.168h0.34158" fill="none" stroke="#fff" stroke-linecap="round" stroke-linejoin="round" stroke-miterlimit="4.48"/>
    <path d="m21.841 38.168h0.34158" fill="none" stroke="#fff" stroke-linecap="round" stroke-linejoin="round" stroke-miterlimit="4.48"/>
    <path d="m23.916 38.168h0.34158" fill="none" stroke="#fff" stroke-linecap="round" stroke-linejoin="round" stroke-miterlimit="4.48"/>
    <path d="m25.992 38.168h0.34158" fill="none" stroke="#fff" stroke-linecap="round" stroke-linejoin="round" stroke-miterlimit="4.48"/>
    <path d="m28.067 38.168h0.34158" fill="none" stroke="#fff" stroke-linecap="round" stroke-linejoin="round" stroke-miterlimit="4.48"/>
</svg>
